svg/www.svg

<?xml version="1.0" encoding="UTF-8"?>
<svg xmlns="http://www.w3.org/2000/svg" xmlns:xlink="http://www.w3.org/1999/xlink" width="32" height="32" viewBox="0 0 32 32">
<path fill-rule="nonzero" fill="rgb(20.392157%, 59.607843%, 85.882353%)" fill-opacity="1" d="M 16 2.800781 C 10.410156 2.800781 5.644531 6.289062 3.722656 11.199219 L 3.601562 11.199219 C 2.941406 11.199219 2.398438 11.742188 2.398438 12.398438 L 2.398438 19.601562 C 2.398438 20.257812 2.941406 20.800781 3.601562 20.800781 L 3.722656 20.800781 C 5.644531 25.710938 10.410156 29.199219 16 29.199219 C 21.589844 29.199219 26.355469 25.710938 28.277344 20.800781 L 28.398438 20.800781 C 29.058594 20.800781 29.601562 20.257812 29.601562 19.601562 L 29.601562 12.398438 C 29.601562 11.742188 29.058594 11.199219 28.398438 11.199219 L 28.277344 11.199219 C 26.355469 6.289062 21.589844 2.800781 16 2.800781 M 16 3.601562 C 15.78125 3.605469 15.605469 3.78125 15.601562 4 C 15.601562 4.21875 15.78125 4.398438 16 4.398438 C 16.207031 4.386719 16.371094 4.222656 16.378906 4.015625 C 16.386719 3.808594 16.234375 3.628906 16.03125 3.601562 C 21.164062 3.613281 25.539062 6.75 27.414062 11.199219 L 4.585938 11.199219 C 6.460938 6.742188 10.851562 3.601562 16 3.601562 M 13.199219 4 C 13.054688 3.996094 12.921875 4.074219 12.847656 4.199219 C 12.773438 4.324219 12.773438 4.480469 12.847656 4.605469 C 12.921875 4.730469 13.058594 4.804688 13.203125 4.800781 C 13.308594 4.796875 13.410156 4.757812 13.488281 4.683594 C 13.5625 4.609375 13.605469 4.503906 13.601562 4.398438 C 13.601562 4.292969 13.558594 4.191406 13.484375 4.117188 C 13.40625 4.039062 13.304688 4 13.199219 4 M 18.800781 4 C 18.640625 4 18.496094 4.097656 18.429688 4.246094 C 18.378906 4.371094 18.394531 4.511719 18.46875 4.621094 C 18.542969 4.734375 18.667969 4.800781 18.800781 4.800781 C 19.023438 4.800781 19.199219 4.621094 19.203125 4.402344 C 19.203125 4.296875 19.160156 4.191406 19.085938 4.117188 C 19.007812 4.042969 18.90625 4 18.800781 4 M 12 5.199219 C 11.789062 5.214844 11.628906 5.390625 11.628906 5.601562 C 11.628906 5.808594 11.789062 5.984375 12 6 C 12.21875 6 12.398438 5.820312 12.398438 5.601562 C 12.398438 5.496094 12.359375 5.394531 12.285156 5.316406 C 12.207031 5.242188 12.105469 5.203125 12 5.199219 M 16 5.199219 C 15.785156 5.210938 15.617188 5.386719 15.617188 5.601562 C 15.621094 5.8125 15.785156 5.988281 16 6 C 16.21875 6 16.398438 5.824219 16.398438 5.601562 C 16.398438 5.496094 16.359375 5.394531 16.285156 5.316406 C 16.207031 5.246094 16.105469 5.203125 16 5.199219 M 20 5.199219 C 19.785156 5.210938 19.617188 5.386719 19.617188 5.601562 C 19.621094 5.8125 19.785156 5.988281 20 6 C 20.21875 6 20.398438 5.824219 20.398438 5.601562 C 20.398438 5.496094 20.359375 5.394531 20.285156 5.316406 C 20.207031 5.246094 20.105469 5.203125 20 5.199219 M 8 6.800781 C 7.847656 6.785156 7.699219 6.859375 7.617188 6.988281 C 7.539062 7.121094 7.539062 7.28125 7.617188 7.414062 C 7.699219 7.542969 7.847656 7.617188 8 7.601562 C 8.214844 7.59375 8.382812 7.417969 8.382812 7.203125 C 8.382812 6.988281 8.214844 6.8125 8 6.800781 M 9.601562 6.800781 C 9.496094 6.800781 9.394531 6.839844 9.316406 6.917969 C 9.242188 6.992188 9.199219 7.09375 9.199219 7.199219 C 9.199219 7.421875 9.375 7.601562 9.597656 7.605469 C 9.820312 7.605469 10 7.425781 10 7.203125 C 10 7.097656 9.960938 6.996094 9.886719 6.917969 C 9.808594 6.84375 9.707031 6.800781 9.601562 6.800781 M 11.199219 6.800781 C 10.980469 6.808594 10.804688 6.984375 10.800781 7.203125 C 10.800781 7.308594 10.84375 7.410156 10.917969 7.488281 C 10.992188 7.5625 11.097656 7.601562 11.203125 7.601562 C 11.421875 7.601562 11.601562 7.421875 11.601562 7.203125 C 11.601562 7.097656 11.554688 6.996094 11.480469 6.921875 C 11.40625 6.847656 11.304688 6.804688 11.199219 6.804688 M 12.800781 6.804688 C 12.648438 6.792969 12.5 6.863281 12.417969 6.992188 C 12.339844 7.121094 12.335938 7.285156 12.414062 7.417969 C 12.496094 7.546875 12.644531 7.621094 12.796875 7.605469 C 13.007812 7.589844 13.171875 7.417969 13.171875 7.207031 C 13.171875 6.996094 13.011719 6.820312 12.800781 6.804688 M 14.398438 6.804688 C 14.234375 6.792969 14.082031 6.882812 14.007812 7.027344 C 13.9375 7.175781 13.960938 7.351562 14.066406 7.472656 C 14.136719 7.550781 14.238281 7.597656 14.34375 7.605469 C 14.566406 7.621094 14.757812 7.453125 14.773438 7.234375 C 14.78125 7.128906 14.746094 7.023438 14.675781 6.941406 C 14.605469 6.859375 14.503906 6.8125 14.398438 6.804688 M 16 6.800781 C 15.789062 6.796875 15.613281 6.960938 15.601562 7.167969 L 15.601562 7.199219 C 15.601562 7.410156 15.761719 7.585938 15.972656 7.601562 L 16 7.601562 C 16.214844 7.59375 16.382812 7.417969 16.382812 7.203125 C 16.382812 6.988281 16.214844 6.8125 16 6.800781 M 17.601562 6.800781 C 17.496094 6.796875 17.390625 6.839844 17.316406 6.914062 C 17.199219 7.027344 17.164062 7.203125 17.226562 7.351562 C 17.289062 7.503906 17.433594 7.601562 17.597656 7.605469 C 17.757812 7.605469 17.90625 7.507812 17.972656 7.359375 C 18.023438 7.234375 18.011719 7.09375 17.9375 6.980469 C 17.863281 6.871094 17.738281 6.800781 17.601562 6.800781 M 19.199219 6.800781 C 18.980469 6.808594 18.804688 6.984375 18.800781 7.203125 C 18.800781 7.3125 18.839844 7.414062 18.917969 7.488281 C 18.992188 7.5625 19.097656 7.605469 19.203125 7.601562 C 19.421875 7.601562 19.601562 7.425781 19.601562 7.203125 C 19.597656 6.984375 19.417969 6.804688 19.199219 6.804688 M 20.800781 6.804688 C 20.648438 6.789062 20.5 6.863281 20.417969 6.992188 C 20.335938 7.121094 20.335938 7.285156 20.417969 7.414062 C 20.496094 7.546875 20.644531 7.621094 20.796875 7.605469 C 21.007812 7.59375 21.171875 7.417969 21.171875 7.207031 C 21.171875 6.996094 21.011719 6.820312 20.800781 6.804688 M 22.398438 6.804688 C 22.292969 6.796875 22.1875 6.832031 22.105469 6.902344 C 22.023438 6.972656 21.976562 7.074219 21.96875 7.179688 C 21.964844 7.394531 22.132812 7.574219 22.34375 7.589844 C 22.558594 7.605469 22.75 7.449219 22.773438 7.234375 C 22.78125 7.128906 22.746094 7.023438 22.675781 6.941406 C 22.605469 6.863281 22.503906 6.8125 22.398438 6.804688 M 24 6.800781 C 23.847656 6.785156 23.699219 6.859375 23.617188 6.988281 C 23.539062 7.117188 23.539062 7.28125 23.617188 7.414062 C 23.699219 7.542969 23.847656 7.617188 24 7.601562 C 24.222656 7.601562 24.398438 7.421875 24.398438 7.199219 C 24.394531 6.980469 24.21875 6.804688 24 6.800781 M 10.398438 8.398438 C 10.179688 8.402344 10.007812 8.582031 10.007812 8.800781 C 10.007812 9.019531 10.183594 9.195312 10.402344 9.199219 C 10.566406 9.199219 10.710938 9.101562 10.773438 8.949219 C 10.832031 8.796875 10.796875 8.628906 10.683594 8.511719 C 10.605469 8.4375 10.503906 8.398438 10.398438 8.398438 M 16 8.398438 C 15.785156 8.410156 15.617188 8.585938 15.617188 8.800781 C 15.617188 9.011719 15.785156 9.1875 16 9.199219 C 16.21875 9.199219 16.398438 9.019531 16.398438 8.800781 C 16.398438 8.695312 16.359375 8.59375 16.285156 8.515625 C 16.207031 8.441406 16.105469 8.398438 16 8.398438 M 21.601562 8.398438 C 21.449219 8.382812 21.300781 8.453125 21.21875 8.582031 C 21.136719 8.710938 21.136719 8.878906 21.21875 9.007812 C 21.296875 9.140625 21.445312 9.214844 21.597656 9.199219 C 21.808594 9.183594 21.972656 9.011719 21.972656 8.800781 C 21.972656 8.589844 21.8125 8.414062 21.601562 8.398438 M 10 10 C 9.777344 10 9.601562 10.179688 9.601562 10.398438 C 9.601562 10.621094 9.777344 10.800781 10 10.800781 C 10.214844 10.789062 10.382812 10.613281 10.382812 10.398438 C 10.378906 10.183594 10.210938 10.011719 10 10 M 16 10 C 15.777344 10 15.601562 10.179688 15.601562 10.398438 C 15.601562 10.621094 15.777344 10.800781 16 10.800781 C 16.214844 10.789062 16.382812 10.613281 16.382812 10.398438 C 16.378906 10.183594 16.210938 10.011719 16 10 M 22 10 C 21.777344 10 21.601562 10.179688 21.601562 10.398438 C 21.601562 10.621094 21.777344 10.800781 22 10.800781 C 22.214844 10.789062 22.382812 10.613281 22.382812 10.398438 C 22.378906 10.183594 22.210938 10.011719 22 10 M 3.601562 12 L 28.398438 12 C 28.625 12 28.800781 12.171875 28.800781 12.398438 L 28.800781 19.601562 C 28.804688 19.710938 28.761719 19.8125 28.683594 19.886719 C 28.605469 19.960938 28.503906 20 28.398438 20 L 3.601562 20 C 3.496094 20 3.394531 19.960938 3.316406 19.886719 C 3.242188 19.8125 3.199219 19.707031 3.199219 19.601562 L 3.199219 12.398438 C 3.199219 12.171875 3.375 12 3.601562 12 M 6 14 L 7.203125 18 L 7.957031 18 L 8.863281 15.167969 L 8.90625 15.167969 L 9.820312 18 L 10.570312 18 L 11.773438 14 L 10.945312 14 L 10.179688 16.976562 L 10.132812 16.976562 L 9.242188 14 L 8.53125 14 L 7.648438 16.976562 L 7.601562 16.976562 L 6.835938 14 Z M 13.113281 14 L 14.3125 18 L 15.070312 18 L 15.976562 15.167969 L 16.023438 15.167969 L 16.933594 18 L 17.6875 18 L 18.886719 14 L 18.058594 14 L 17.292969 16.976562 L 17.25 16.976562 L 16.355469 14 L 15.644531 14 L 14.761719 16.976562 L 14.714844 16.976562 L 13.949219 14 Z M 20.226562 14 L 21.429688 18 L 22.179688 18 L 23.089844 15.167969 L 23.136719 15.167969 L 24.046875 18 L 24.796875 18 L 26 14 L 25.171875 14 L 24.40625 16.976562 L 24.363281 16.976562 L 23.46875 14 L 22.757812 14 L 21.875 16.976562 L 21.828125 16.976562 L 21.0625 14 Z M 12.398438 17.199219 C 12.25 17.195312 12.109375 17.269531 12.035156 17.398438 C 11.960938 17.523438 11.960938 17.683594 12.039062 17.808594 C 12.113281 17.933594 12.253906 18.007812 12.402344 18 C 12.625 18 12.804688 17.820312 12.800781 17.597656 C 12.800781 17.492188 12.757812 17.390625 12.683594 17.3125 C 12.605469 17.238281 12.503906 17.199219 12.398438 17.199219 M 19.601562 17.199219 C 19.453125 17.1875 19.308594 17.257812 19.230469 17.386719 C 19.140625 17.527344 19.148438 17.707031 19.25 17.839844 C 19.347656 17.972656 19.519531 18.03125 19.679688 17.984375 C 19.867188 17.933594 19.992188 17.753906 19.972656 17.558594 C 19.953125 17.363281 19.796875 17.210938 19.601562 17.199219 M 4.585938 20.800781 L 27.414062 20.800781 C 25.539062 25.257812 21.148438 28.398438 16 28.398438 C 16.21875 28.398438 16.398438 28.21875 16.398438 28 C 16.394531 27.78125 16.21875 27.605469 16 27.601562 C 15.792969 27.613281 15.632812 27.777344 15.621094 27.984375 C 15.613281 28.191406 15.765625 28.371094 15.96875 28.398438 C 10.835938 28.386719 6.460938 25.25 4.585938 20.800781 M 10 21.203125 C 9.789062 21.21875 9.628906 21.390625 9.628906 21.601562 C 9.628906 21.8125 9.789062 21.988281 10 22.003906 C 10.160156 22 10.304688 21.902344 10.367188 21.753906 C 10.417969 21.628906 10.40625 21.488281 10.332031 21.378906 C 10.257812 21.269531 10.132812 21.203125 10 21.203125 M 16 21.203125 C 15.789062 21.21875 15.628906 21.390625 15.628906 21.601562 C 15.628906 21.8125 15.789062 21.988281 16 22.003906 C 16.160156 22 16.304688 21.902344 16.367188 21.753906 C 16.417969 21.628906 16.40625 21.488281 16.332031 21.378906 C 16.257812 21.269531 16.132812 21.203125 16 21.203125 M 22 21.203125 C 21.789062 21.21875 21.628906 21.390625 21.628906 21.601562 C 21.628906 21.8125 21.789062 21.988281 22 22.003906 C 22.160156 22 22.304688 21.902344 22.367188 21.753906 C 22.417969 21.628906 22.40625 21.488281 22.332031 21.378906 C 22.257812 21.269531 22.132812 21.203125 22 21.203125 M 10.398438 22.800781 C 10.292969 22.800781 10.191406 22.84375 10.113281 22.917969 C 10.039062 22.996094 10 23.097656 10 23.203125 C 10.015625 23.414062 10.191406 23.574219 10.402344 23.574219 C 10.613281 23.574219 10.785156 23.410156 10.800781 23.199219 C 10.796875 22.980469 10.617188 22.804688 10.398438 22.804688 M 16 22.804688 C 15.847656 22.789062 15.699219 22.863281 15.617188 22.992188 C 15.539062 23.125 15.539062 23.285156 15.617188 23.417969 C 15.699219 23.546875 15.847656 23.621094 16 23.605469 C 16.214844 23.59375 16.382812 23.417969 16.382812 23.203125 C 16.382812 22.988281 16.214844 22.8125 16 22.804688 M 21.601562 22.804688 C 21.453125 22.792969 21.308594 22.867188 21.230469 22.996094 C 21.136719 23.136719 21.144531 23.324219 21.253906 23.457031 C 21.367188 23.59375 21.558594 23.640625 21.722656 23.570312 C 21.886719 23.5 21.984375 23.328125 21.964844 23.152344 C 21.941406 22.964844 21.789062 22.820312 21.601562 22.804688 M 8 24.398438 C 7.851562 24.386719 7.707031 24.460938 7.628906 24.589844 C 7.550781 24.714844 7.550781 24.875 7.628906 25.003906 C 7.703125 25.132812 7.847656 25.207031 7.996094 25.199219 C 8.207031 25.183594 8.371094 25.011719 8.371094 24.800781 C 8.371094 24.589844 8.210938 24.414062 8 24.398438 M 9.601562 24.398438 C 9.449219 24.382812 9.300781 24.453125 9.21875 24.582031 C 9.136719 24.710938 9.136719 24.878906 9.21875 25.007812 C 9.296875 25.140625 9.445312 25.214844 9.597656 25.199219 C 9.808594 25.183594 9.972656 25.011719 9.972656 24.800781 C 9.972656 24.589844 9.8125 24.414062 9.601562 24.398438 M 11.199219 24.398438 C 10.976562 24.402344 10.800781 24.582031 10.800781 24.804688 C 10.804688 25.023438 10.984375 25.199219 11.203125 25.199219 C 11.425781 25.199219 11.601562 25.019531 11.601562 24.796875 C 11.601562 24.574219 11.417969 24.398438 11.199219 24.398438 M 12.800781 24.398438 C 12.648438 24.382812 12.5 24.453125 12.417969 24.582031 C 12.335938 24.714844 12.335938 24.878906 12.417969 25.007812 C 12.496094 25.140625 12.644531 25.214844 12.796875 25.199219 C 13.007812 25.183594 13.171875 25.011719 13.171875 24.800781 C 13.171875 24.589844 13.011719 24.414062 12.800781 24.398438 M 14.398438 24.398438 C 14.175781 24.402344 14 24.582031 14 24.804688 C 13.992188 24.953125 14.066406 25.09375 14.195312 25.171875 C 14.324219 25.25 14.484375 25.25 14.613281 25.167969 C 14.738281 25.089844 14.8125 24.945312 14.800781 24.796875 C 14.800781 24.691406 14.757812 24.589844 14.683594 24.515625 C 14.605469 24.4375 14.503906 24.398438 14.398438 24.398438 M 16 24.398438 C 15.789062 24.402344 15.617188 24.5625 15.601562 24.773438 L 15.601562 24.804688 C 15.605469 25.011719 15.765625 25.183594 15.972656 25.199219 L 16 25.199219 C 16.207031 25.179688 16.367188 25.007812 16.367188 24.800781 C 16.367188 24.59375 16.207031 24.421875 16 24.402344 M 17.601562 24.402344 C 17.453125 24.390625 17.308594 24.460938 17.230469 24.589844 C 17.152344 24.71875 17.152344 24.878906 17.230469 25.007812 C 17.304688 25.132812 17.449219 25.210938 17.597656 25.199219 C 17.816406 25.199219 17.996094 25.023438 18 24.804688 C 18 24.582031 17.824219 24.402344 17.601562 24.402344 M 19.199219 24.402344 C 19.054688 24.398438 18.917969 24.476562 18.84375 24.601562 C 18.769531 24.726562 18.769531 24.882812 18.847656 25.007812 C 18.941406 25.164062 19.125 25.238281 19.296875 25.1875 C 19.472656 25.140625 19.589844 24.980469 19.589844 24.800781 C 19.589844 24.582031 19.417969 24.40625 19.199219 24.402344 M 20.800781 24.402344 C 20.652344 24.386719 20.507812 24.460938 20.429688 24.589844 C 20.355469 24.71875 20.355469 24.878906 20.429688 25.003906 C 20.507812 25.132812 20.648438 25.207031 20.796875 25.199219 C 21.015625 25.199219 21.195312 25.023438 21.199219 24.804688 C 21.199219 24.699219 21.160156 24.597656 21.082031 24.519531 C 21.007812 24.445312 20.90625 24.402344 20.800781 24.402344 M 22.398438 24.402344 C 22.292969 24.402344 22.1875 24.445312 22.113281 24.519531 C 22.039062 24.597656 22 24.699219 22 24.804688 C 22 25.027344 22.179688 25.203125 22.402344 25.203125 C 22.507812 25.203125 22.609375 25.160156 22.6875 25.085938 C 22.839844 24.925781 22.835938 24.675781 22.683594 24.515625 C 22.609375 24.441406 22.503906 24.398438 22.398438 24.402344 M 24 24.402344 C 23.785156 24.410156 23.617188 24.585938 23.617188 24.800781 C 23.617188 25.015625 23.785156 25.191406 24 25.203125 C 24.222656 25.203125 24.398438 25.023438 24.398438 24.804688 C 24.398438 24.585938 24.222656 24.402344 24 24.402344 M 12 26 C 11.777344 26 11.601562 26.179688 11.601562 26.398438 C 11.601562 26.621094 11.777344 26.800781 12 26.800781 C 12.214844 26.789062 12.382812 26.613281 12.382812 26.398438 C 12.378906 26.183594 12.210938 26.011719 12 26 M 16 26 C 15.777344 26 15.601562 26.179688 15.601562 26.398438 C 15.601562 26.621094 15.777344 26.800781 16 26.800781 C 16.214844 26.789062 16.382812 26.613281 16.382812 26.398438 C 16.378906 26.183594 16.210938 26.011719 16 26 M 20 26 C 19.777344 26 19.601562 26.179688 19.601562 26.398438 C 19.601562 26.621094 19.777344 26.800781 20 26.800781 C 20.214844 26.789062 20.382812 26.613281 20.382812 26.398438 C 20.378906 26.183594 20.210938 26.011719 20 26 M 13.199219 27.199219 C 13.054688 27.195312 12.914062 27.269531 12.835938 27.394531 C 12.765625 27.523438 12.765625 27.679688 12.84375 27.804688 C 12.917969 27.929688 13.054688 28.003906 13.203125 28 C 13.308594 28 13.410156 27.957031 13.488281 27.882812 C 13.5625 27.804688 13.601562 27.703125 13.601562 27.597656 C 13.601562 27.492188 13.558594 27.390625 13.484375 27.3125 C 13.40625 27.238281 13.304688 27.199219 13.199219 27.199219 M 18.800781 27.199219 C 18.65625 27.195312 18.515625 27.269531 18.441406 27.394531 C 18.363281 27.519531 18.363281 27.675781 18.433594 27.804688 C 18.507812 27.929688 18.648438 28.007812 18.796875 28 C 19.003906 27.984375 19.167969 27.8125 19.167969 27.601562 C 19.167969 27.394531 19.007812 27.21875 18.800781 27.199219 M 18.800781 27.199219 "/>
</svg>

<svg role="img" viewBox="0 0 32 32" height="32" width="32" xmlns="http://www.w3.org/2000/svg"><path d="M16 2.8c-5.59 0-10.355 3.49-12.277 8.4h-.121c-.66 0-1.204.542-1.204 1.198v7.204c0 .656.543 1.199 1.204 1.199h.12C5.646 25.71 10.41 29.199 16 29.199c5.59 0 10.355-3.488 12.277-8.398h.121c.66 0 1.204-.543 1.204-1.2v-7.203c0-.656-.543-1.199-1.204-1.199h-.12C26.354 6.29 21.59 2.801 16 2.801m0 .8a.405.405 0 0 0-.398.399.4.4 0 0 0 .398.398.399.399 0 0 0 .379-.382.404.404 0 0 0-.348-.414c5.133.011 9.508 3.148 11.383 7.597H4.586C6.46 6.742 10.852 3.602 16 3.602M13.2 4a.398.398 0 0 0-.352.2.398.398 0 0 0 .355.6.434.434 0 0 0 .285-.116.389.389 0 0 0 .114-.286.4.4 0 0 0-.403-.398m5.602 0a.41.41 0 0 0-.371.246.4.4 0 0 0 .039.375c.074.113.199.18.332.18.222 0 .398-.18.402-.399a.409.409 0 0 0-.117-.285A.409.409 0 0 0 18.8 4M12 5.2a.401.401 0 0 0 0 .8.4.4 0 0 0 .398-.398.408.408 0 0 0-.113-.286A.434.434 0 0 0 12 5.2m4 0a.403.403 0 0 0-.383.403c.004.21.168.386.383.398a.398.398 0 0 0 .398-.398.412.412 0 0 0-.113-.286A.434.434 0 0 0 16 5.2m4 0a.403.403 0 0 0-.383.403c.004.21.168.386.383.398a.398.398 0 0 0 .398-.398.412.412 0 0 0-.113-.286A.434.434 0 0 0 20 5.2M8 6.801a.407.407 0 0 0-.383.187.416.416 0 0 0 0 .426c.082.129.23.203.383.188a.397.397 0 0 0 .383-.399A.403.403 0 0 0 8 6.801m1.602 0a.399.399 0 0 0-.403.398c0 .223.176.403.399.406.222 0 .402-.18.402-.402a.398.398 0 0 0-.398-.402m1.597 0a.411.411 0 0 0-.398.402c0 .106.043.207.117.285.074.074.18.114.285.114a.4.4 0 0 0 .399-.399.403.403 0 0 0-.122-.281.4.4 0 0 0-.28-.117m1.6 0a.407.407 0 0 0-.386.613c.082.129.23.203.383.187a.401.401 0 0 0 .004-.8m1.597 0a.404.404 0 0 0-.332.668c.07.078.172.125.278.132a.403.403 0 0 0 .43-.371.403.403 0 0 0-.376-.43M16 6.802a.389.389 0 0 0-.398.367V7.2c0 .211.16.387.37.403H16a.397.397 0 0 0 .383-.399.403.403 0 0 0-.383-.402m1.602 0a.389.389 0 0 0-.286.113.396.396 0 0 0-.09.438c.063.152.208.25.372.253.16 0 .308-.097.375-.246a.403.403 0 0 0-.371-.558m1.597 0a.409.409 0 0 0-.398.402.394.394 0 0 0 .402.399.4.4 0 0 0 .399-.399.403.403 0 0 0-.403-.398m1.602 0a.4.4 0 0 0-.383.187.392.392 0 0 0 0 .422.393.393 0 0 0 .379.191.401.401 0 0 0 .004-.8m1.597 0a.405.405 0 0 0-.293.097.396.396 0 0 0-.136.278.404.404 0 0 0 .805.055.403.403 0 0 0-.376-.43M24 6.8a.407.407 0 0 0-.383.187.416.416 0 0 0 0 .426c.082.129.23.203.383.188.223 0 .398-.18.398-.403A.403.403 0 0 0 24 6.801M10.398 8.398a.4.4 0 0 0-.39.403.4.4 0 0 0 .394.398.399.399 0 0 0 .371-.25.412.412 0 0 0-.09-.437.412.412 0 0 0-.285-.114m5.602 0a.403.403 0 0 0-.383.403c0 .21.168.386.383.398a.4.4 0 0 0 .398-.398.412.412 0 0 0-.113-.285.416.416 0 0 0-.285-.118m5.602 0a.4.4 0 0 0-.383.61.393.393 0 0 0 .379.191.401.401 0 0 0 .004-.8M10 10a.4.4 0 0 0 0 .8.403.403 0 0 0 .383-.402A.405.405 0 0 0 10 10m6 0a.4.4 0 0 0 0 .8.403.403 0 0 0 .383-.402A.405.405 0 0 0 16 10m6 0a.4.4 0 0 0 0 .8.403.403 0 0 0 .383-.402A.405.405 0 0 0 22 10M3.602 12h24.796c.227 0 .403.172.403.398v7.204a.377.377 0 0 1-.117.285.405.405 0 0 1-.286.113H3.602a.405.405 0 0 1-.286-.113.409.409 0 0 1-.117-.285v-7.204c0-.226.176-.398.403-.398M6 14l1.203 4h.754l.906-2.832h.043L9.82 18h.75l1.203-4h-.828l-.765 2.977h-.047L9.243 14H8.53l-.883 2.977h-.046L6.836 14Zm7.113 0 1.2 4h.757l.907-2.832h.046l.91 2.832h.755l1.199-4h-.828l-.766 2.977h-.043L16.355 14h-.71l-.883 2.977h-.047L13.949 14Zm7.114 0 1.203 4h.75l.91-2.832h.047l.91 2.832h.75L26 14h-.828l-.766 2.977h-.043L23.47 14h-.711l-.883 2.977h-.047L21.063 14Zm-7.829 3.2a.405.405 0 0 0-.363.198.397.397 0 0 0 .004.41c.074.126.215.2.363.192.223 0 .403-.18.399-.402a.416.416 0 0 0-.117-.285.405.405 0 0 0-.286-.114m7.204 0a.396.396 0 0 0-.372.188c-.09.14-.082.32.02.453.098.133.27.191.43.144a.4.4 0 0 0-.078-.785M4.586 20.801h22.828C25.54 25.258 21.148 28.398 16 28.398a.4.4 0 0 0 .398-.398.405.405 0 0 0-.398-.398.402.402 0 0 0-.379.382.404.404 0 0 0 .348.414c-5.133-.011-9.508-3.148-11.383-7.597m5.414.402a.401.401 0 0 0 0 .8.41.41 0 0 0 .367-.25.4.4 0 0 0-.035-.374.402.402 0 0 0-.332-.176m6 0a.401.401 0 0 0 0 .8.41.41 0 0 0 .367-.25.4.4 0 0 0-.035-.374.402.402 0 0 0-.332-.176m6 0a.401.401 0 0 0 0 .8.41.41 0 0 0 .367-.25.4.4 0 0 0-.035-.374.402.402 0 0 0-.332-.176m-11.602 1.598a.398.398 0 0 0-.398.402.401.401 0 0 0 .8-.004.403.403 0 0 0-.402-.394m5.602 0a.407.407 0 0 0-.383.187.416.416 0 0 0 0 .426c.082.129.23.203.383.187a.403.403 0 0 0 .383-.402.397.397 0 0 0-.383-.398m5.602 0a.4.4 0 0 0-.372.191.387.387 0 0 0 .024.461.403.403 0 0 0 .71-.305.4.4 0 0 0-.362-.347M8 24.398a.401.401 0 1 0-.003.8.401.401 0 0 0 .003-.8m1.602 0a.4.4 0 0 0-.383.61.393.393 0 0 0 .379.191.401.401 0 0 0 .004-.8m1.597 0a.404.404 0 0 0-.398.406.403.403 0 0 0 .402.394.4.4 0 0 0-.004-.8m1.602 0a.4.4 0 0 0-.383.61.393.393 0 0 0 .379.19.401.401 0 0 0 .004-.8m1.597 0a.404.404 0 0 0-.398.406.404.404 0 0 0 .195.367c.13.078.29.078.418-.004a.404.404 0 0 0 .188-.371.4.4 0 0 0-.403-.399m1.602 0a.404.404 0 0 0-.398.375v.032a.403.403 0 0 0 .37.394H16a.403.403 0 0 0 .367-.398.403.403 0 0 0-.367-.399m1.602 0a.396.396 0 0 0-.372.188.402.402 0 0 0 .368.61.403.403 0 0 0 .402-.395.401.401 0 0 0-.398-.403m1.597 0a.404.404 0 0 0-.355.2.39.39 0 0 0 .004.406c.093.156.277.23.449.18a.397.397 0 0 0 .293-.387.396.396 0 0 0-.39-.399m1.6 0a.389.389 0 0 0-.37.188.404.404 0 0 0 .367.61.403.403 0 0 0 .402-.395.399.399 0 0 0-.398-.403m1.597 0a.409.409 0 0 0-.285.118.412.412 0 0 0-.113.285c0 .222.18.398.402.398a.416.416 0 0 0 .285-.117.413.413 0 0 0-.003-.57.389.389 0 0 0-.286-.114m1.602 0a.397.397 0 0 0-.383.399c0 .215.168.39.383.402.223 0 .398-.18.398-.398a.4.4 0 0 0-.398-.402M12 26a.4.4 0 0 0 0 .8.403.403 0 0 0 .383-.402A.405.405 0 0 0 12 26m4 0a.4.4 0 0 0 0 .8.403.403 0 0 0 .383-.402A.405.405 0 0 0 16 26m4 0a.4.4 0 0 0 0 .8.403.403 0 0 0 .383-.402A.405.405 0 0 0 20 26m-6.8 1.2a.418.418 0 0 0-.364.195.406.406 0 0 0 .367.605.416.416 0 0 0 .285-.117.405.405 0 0 0 .114-.285.416.416 0 0 0-.118-.285.412.412 0 0 0-.285-.114m5.602 0a.406.406 0 0 0-.367.605.401.401 0 0 0 .363.196.4.4 0 0 0 .371-.398.406.406 0 0 0-.367-.403m0 0" fill="rgb(20.392157%, 59.607843%, 85.882353%)"/></svg>
